X:48
T:Dinny O'Keefe's
R:slide
Z:id:hn-slide-48
M:6/8
K:Amix
E2A ABA|G2A Bcd|e2A ABA|G2E F2D|E2A ABA|G2A Bcd|e2A BcB|A3 A3:|
|:e3 efe|d3 dcd|e2A ABA|G2E F2D|E2A ABA|G2A Bcd|e2A BcB|A3 A3:|
